static/images/github.svg

<svg height="119" viewBox="0 0 121 119" width="121" xmlns="http://www.w3.org/2000/svg"><g fill="#161514" fill-rule="evenodd" transform=""><path d="m60.609.445c-33.347 0-60.388 27.036-60.388 60.388 0 26.681 17.303 49.317 41.297 57.302 3.018.559 4.126-1.31 4.126-2.905 0-1.44-.056-6.197-.082-11.243-16.8 3.653-20.345-7.125-20.345-7.125-2.747-6.98-6.705-8.836-6.705-8.836-5.479-3.748.413-3.671.413-3.671 6.064.426 9.257 6.223 9.257 6.223 5.386 9.232 14.127 6.563 17.573 5.02.542-3.903 2.107-6.567 3.834-8.075-13.413-1.527-27.513-6.705-27.513-29.844 0-6.593 2.359-11.98 6.222-16.209-.627-1.521-2.694-7.663.585-15.981 0 0 5.071-1.623 16.611 6.19 4.817-1.338 9.983-2.009 15.115-2.032 5.132.023 10.302.694 15.128 2.032 11.526-7.813 16.59-6.19 16.59-6.19 3.287 8.318 1.219 14.46.592 15.981 3.872 4.229 6.215 9.616 6.215 16.209 0 23.194-14.127 28.301-27.574 29.796 2.166 1.874 4.096 5.549 4.096 11.183 0 8.08-.07 14.583-.07 16.572 0 1.607 1.087 3.49 4.148 2.897 23.981-7.994 41.262-30.622 41.262-57.294 0-33.352-27.037-60.388-60.387-60.388"/><path d="m23.093 87.149c-.133.3-.605.39-1.035.184-.438-.197-.684-.606-.542-.907.13-.309.603-.395 1.04-.188.439.197.689.61.537.911"/><path d="m25.539 89.877c-.288.267-.851.143-1.233-.279-.395-.421-.469-.984-.177-1.255.297-.267.843-.142 1.239.279.395.426.472.985.171 1.255"/><path d="m27.92 93.355c-.37.257-.975.016-1.349-.521-.37-.537-.37-1.181.008-1.439.375-.258.971-.026 1.35.507.369.546.369 1.19-.009 1.453"/><path d="m31.182 96.715c-.331.365-1.036.267-1.552-.231-.528-.487-.675-1.178-.343-1.543.335-.366 1.044-.263 1.564.231.524.486.684 1.182.331 1.543"/><path d="m35.682 98.666c-.146.473-.825.688-1.509.487-.683-.207-1.13-.761-.992-1.239.142-.476.824-.7 1.513-.485.682.206 1.13.756.988 1.237"/><path d="m40.624 99.028c.017.498-.563.911-1.281.92-.722.016-1.306-.387-1.314-.877 0-.503.567-.912 1.289-.924.718-.014 1.306.386 1.306.881"/><path d="m45.223 98.245c.086.486-.413.985-1.126 1.118-.701.128-1.35-.172-1.439-.654-.087-.498.421-.997 1.121-1.126.714-.124 1.353.168 1.444.662"/></g></svg>

<?xml version="1.0" encoding="UTF-8"?>
<svg width="121px" height="119px" viewBox="0 0 121 119" version="1.1" xmlns="http://www.w3.org/2000/svg" xmlns:xlink="http://www.w3.org/1999/xlink">
    <!-- Generator: Sketch 50 (54983) - http://www.bohemiancoding.com/sketch -->
    <title>Group</title>
    <desc>Created with Sketch.</desc>
    <defs></defs>
    <g id="Page-1" stroke="none" stroke-width="1" fill="none" fill-rule="evenodd">
        <g id="GitHub-Mark" transform="translate(-290.000000, -6.000000)" fill="#161514">
            <g id="Group" transform="translate(290.000000, 6.000000)">
                <path d="M60.609,0.445 C27.262,0.445 0.221,27.481 0.221,60.833 C0.221,87.514 17.524,110.15 41.518,118.135 C44.536,118.694 45.644,116.825 45.644,115.23 C45.644,113.79 45.588,109.033 45.562,103.987 C28.762,107.64 25.217,96.862 25.217,96.862 C22.47,89.882 18.512,88.026 18.512,88.026 C13.033,84.278 18.925,84.355 18.925,84.355 C24.989,84.781 28.182,90.578 28.182,90.578 C33.568,99.81 42.309,97.141 45.755,95.598 C46.297,91.695 47.862,89.031 49.589,87.523 C36.176,85.996 22.076,80.818 22.076,57.679 C22.076,51.086 24.435,45.699 28.298,41.47 C27.671,39.949 25.604,33.807 28.883,25.489 C28.883,25.489 33.954,23.866 45.494,31.679 C50.311,30.341 55.477,29.67 60.609,29.647 C65.741,29.67 70.911,30.341 75.737,31.679 C87.263,23.866 92.327,25.489 92.327,25.489 C95.614,33.807 93.546,39.949 92.919,41.47 C96.791,45.699 99.134,51.086 99.134,57.679 C99.134,80.873 85.007,85.98 71.56,87.475 C73.726,89.349 75.656,93.024 75.656,98.658 C75.656,106.738 75.586,113.241 75.586,115.23 C75.586,116.837 76.673,118.72 79.734,118.127 C103.715,110.133 120.996,87.505 120.996,60.833 C120.996,27.481 93.959,0.445 60.609,0.445" id="Fill-5"></path>
                <path d="M23.093,87.149 C22.96,87.449 22.488,87.539 22.058,87.333 C21.62,87.136 21.374,86.727 21.516,86.426 C21.646,86.117 22.119,86.031 22.556,86.238 C22.995,86.435 23.245,86.848 23.093,87.149" id="Fill-6"></path>
                <path d="M25.539,89.877 C25.251,90.144 24.688,90.02 24.306,89.598 C23.911,89.177 23.837,88.614 24.129,88.343 C24.426,88.076 24.972,88.201 25.368,88.622 C25.763,89.048 25.84,89.607 25.539,89.877" id="Fill-7"></path>
                <path d="M27.92,93.355 C27.55,93.612 26.945,93.371 26.571,92.834 C26.201,92.297 26.201,91.653 26.579,91.395 C26.954,91.137 27.55,91.369 27.929,91.902 C28.298,92.448 28.298,93.092 27.92,93.355" id="Fill-8"></path>
                <path d="M31.182,96.715 C30.851,97.08 30.146,96.982 29.63,96.484 C29.102,95.997 28.955,95.306 29.287,94.941 C29.622,94.575 30.331,94.678 30.851,95.172 C31.375,95.658 31.535,96.354 31.182,96.715" id="Fill-9"></path>
                <path d="M35.682,98.666 C35.536,99.139 34.857,99.354 34.173,99.153 C33.49,98.946 33.043,98.392 33.181,97.914 C33.323,97.438 34.005,97.214 34.694,97.429 C35.376,97.635 35.824,98.185 35.682,98.666" id="Fill-10"></path>
                <path d="M40.624,99.028 C40.641,99.526 40.061,99.939 39.343,99.948 C38.621,99.964 38.037,99.561 38.029,99.071 C38.029,98.568 38.596,98.159 39.318,98.147 C40.036,98.133 40.624,98.533 40.624,99.028" id="Fill-11"></path>
                <path d="M45.223,98.245 C45.309,98.731 44.81,99.23 44.097,99.363 C43.396,99.491 42.747,99.191 42.658,98.709 C42.571,98.211 43.079,97.712 43.779,97.583 C44.493,97.459 45.132,97.751 45.223,98.245" id="Fill-12"></path>
            </g>
        </g>
    </g>
</svg>
